static/img/kroki/8c981c7605321330f51b59c97ecac8d6.svg

<?xml version="1.0" encoding="us-ascii" standalone="no"?><svg xmlns="http://www.w3.org/2000/svg" xmlns:xlink="http://www.w3.org/1999/xlink" contentStyleType="text/css" height="252px" preserveAspectRatio="none" style="width:393px;height:252px;" version="1.1" viewBox="0 0 393 252" width="393px" zoomAndPan="magnify"><defs/><g><!--class azure_compute_virtual_machine_base--><g id="elem_azure_compute_virtual_machine_base"><rect codeLine="23" fill="#3D176E" height="39.7891" id="azure_compute_virtual_machine_base" rx="2.5" ry="2.5" style="stroke:#000D19;stroke-width:0.5;" width="362" x="7" y="206.58"/><ellipse cx="22" cy="226.4745" fill="#ADD1B2" rx="11" ry="11" style="stroke:#181818;stroke-width:1.0;"/><path d="M24.9688,232.1152 Q24.3906,232.412 23.75,232.5527 Q23.1094,232.7089 22.4063,232.7089 Q19.9063,232.7089 18.5781,231.0683 Q17.2656,229.412 17.2656,226.287 Q17.2656,223.162 18.5781,221.5058 Q19.9063,219.8495 22.4063,219.8495 Q23.1094,219.8495 23.75,220.0058 Q24.4063,220.162 24.9688,220.4589 L24.9688,223.1777 Q24.3438,222.5995 23.75,222.3339 Q23.1563,222.0527 22.5313,222.0527 Q21.1875,222.0527 20.5,223.1308 Q19.8125,224.1933 19.8125,226.287 Q19.8125,228.3808 20.5,229.4589 Q21.1875,230.5214 22.5313,230.5214 Q23.1563,230.5214 23.75,230.2558 Q24.3438,229.9745 24.9688,229.3964 L24.9688,232.1152 Z " fill="#000000"/><text fill="#D9B8FF" font-family="Helvetica" font-size="17" lengthAdjust="spacing" textLength="320" x="41" y="232.3598">azure_compute_virtual_machine_base</text></g><!--class azure_network_profile--><g id="elem_azure_network_profile"><rect codeLine="26" fill="#3D176E" height="39.7891" id="azure_network_profile" rx="2.5" ry="2.5" style="stroke:#000D19;stroke-width:0.5;" width="229" x="157.5" y="106.79"/><ellipse cx="172.5" cy="126.6845" fill="#ADD1B2" rx="11" ry="11" style="stroke:#181818;stroke-width:1.0;"/><path d="M175.4688,132.3252 Q174.8906,132.622 174.25,132.7627 Q173.6094,132.9189 172.9063,132.9189 Q170.4063,132.9189 169.0781,131.2783 Q167.7656,129.622 167.7656,126.497 Q167.7656,123.372 169.0781,121.7158 Q170.4063,120.0595 172.9063,120.0595 Q173.6094,120.0595 174.25,120.2158 Q174.9063,120.372 175.4688,120.6689 L175.4688,123.3877 Q174.8438,122.8095 174.25,122.5439 Q173.6563,122.2627 173.0313,122.2627 Q171.6875,122.2627 171,123.3408 Q170.3125,124.4033 170.3125,126.497 Q170.3125,128.5908 171,129.6689 Q171.6875,130.7314 173.0313,130.7314 Q173.6563,130.7314 174.25,130.4658 Q174.8438,130.1845 175.4688,129.6064 L175.4688,132.3252 Z " fill="#000000"/><text fill="#D9B8FF" font-family="Helvetica" font-size="17" lengthAdjust="spacing" textLength="187" x="191.5" y="132.5698">azure_network_profile</text></g><!--class azure_network_subnet--><g id="elem_azure_network_subnet"><rect codeLine="29" fill="#3D176E" height="39.7891" id="azure_network_subnet" rx="2.5" ry="2.5" style="stroke:#000D19;stroke-width:0.5;" width="233" x="71.5" y="7"/><ellipse cx="86.5" cy="26.8945" fill="#ADD1B2" rx="11" ry="11" style="stroke:#181818;stroke-width:1.0;"/><path d="M89.4688,32.5352 Q88.8906,32.832 88.25,32.9727 Q87.6094,33.1289 86.9063,33.1289 Q84.4063,33.1289 83.0781,31.4883 Q81.7656,29.832 81.7656,26.707 Q81.7656,23.582 83.0781,21.9258 Q84.4063,20.2695 86.9063,20.2695 Q87.6094,20.2695 88.25,20.4258 Q88.9063,20.582 89.4688,20.8789 L89.4688,23.5977 Q88.8438,23.0195 88.25,22.7539 Q87.6563,22.4727 87.0313,22.4727 Q85.6875,22.4727 85,23.5508 Q84.3125,24.6133 84.3125,26.707 Q84.3125,28.8008 85,29.8789 Q85.6875,30.9414 87.0313,30.9414 Q87.6563,30.9414 88.25,30.6758 Q88.8438,30.3945 89.4688,29.8164 L89.4688,32.5352 Z " fill="#000000"/><text fill="#D9B8FF" font-family="Helvetica" font-size="17" lengthAdjust="spacing" textLength="191" x="105.5" y="32.7798">azure_network_subnet</text></g><!--link azure_network_profile to azure_compute_virtual_machine_base--><g id="link_azure_network_profile_azure_compute_virtual_machine_base"><path codeLine="32" d="M255.4,147.01 C240.68,164.15 223.1891,184.5082 208.4691,201.6482 " fill="none" id="azure_network_profile-to-azure_compute_virtual_machine_base" style="stroke:#1A83AF;stroke-width:2.0;"/><polygon fill="#1A83AF" points="204.56,206.2,213.4582,201.9784,207.8176,202.4068,207.3892,196.7662,204.56,206.2" style="stroke:#1A83AF;stroke-width:2.0;"/></g><!--link azure_network_subnet to azure_compute_virtual_machine_base--><g id="link_azure_network_subnet_azure_compute_virtual_machine_base"><path codeLine="33" d="M172.05,47.22 C160.64,62.38 146.23,84.56 140,106.79 C135.23,123.82 135.23,129.55 140,146.58 C146.23,168.81 157.0304,186.2072 168.4404,201.3572 " fill="none" id="azure_network_subnet-to-azure_compute_virtual_machine_base" style="stroke:#1A83AF;stroke-width:2.0;"/><polygon fill="#1A83AF" points="172.05,206.15,169.8308,196.5544,169.042,202.156,163.4404,201.3672,172.05,206.15" style="stroke:#1A83AF;stroke-width:2.0;"/></g><!--link azure_network_subnet to azure_network_profile--><g id="link_azure_network_subnet_azure_network_profile"><path codeLine="34" d="M204.6,47.22 C219.32,64.36 236.8109,84.7182 251.5309,101.8582 " fill="none" id="azure_network_subnet-to-azure_network_profile" style="stroke:#1A83AF;stroke-width:2.0;"/><polygon fill="#1A83AF" points="255.44,106.41,252.6108,96.9762,252.1824,102.6168,246.5418,102.1884,255.44,106.41" style="stroke:#1A83AF;stroke-width:2.0;"/></g><!--SRC=[jP5DJyCm38Rl_HMHTfwqCi6s2rAPDC5bGemRGfNRE6lK9gaSTzE6-Ezi351ezy65MvJtYVtOARH4WQRcZJ1eCYGV-LBR6WYCI8ZSUkegHwAd5AZXg1tEdEMBm1mCYdkiLiWwXpRnNEYyjEYzk0gYEyZB9Rd6oaDv9h1-5w7bW9fMu7t2J3fh60CPESd6IhN9Tj7UKCQZ6-nWZYJI5p8O36GyQICNMvsT-uTOw2sAE5pQt35sD3ijFgcpbdiYaEmC-fsVT7m4ARLTYklWxkdWH1Rfr_sY0EdMUrf1vSCsdf7GyQR6QMSgd8ob6Xs57qx1KRvVdO1jGvZcpjIxRqzNchY1AZMG5zfYce57yHP5xxzeYxnsLAOrEQMhCu1lijtna1z_sd_fnSbucCnU-xT_S8cErl-l8YtPw0C0]--></g></svg>

<svg xmlns="http://www.w3.org/2000/svg" width="393" height="252" viewBox="0 0 393 252"><rect width="362" height="39.789" x="7" y="206.58" fill="#3D176E" rx="2.5" ry="2.5" style="stroke:#000d19;stroke-width:.5"/><circle cx="22" cy="226.475" r="11" fill="#ADD1B2" style="stroke:#181818;stroke-width:1"/><path d="M24.969 232.115q-.578.297-1.219.438-.64.156-1.344.156-2.5 0-3.828-1.64-1.312-1.657-1.312-4.782t1.312-4.781q1.328-1.656 3.828-1.656.703 0 1.344.156.656.156 1.219.453v2.719q-.625-.578-1.219-.844-.594-.281-1.219-.281-1.343 0-2.031 1.078-.687 1.062-.687 3.156t.687 3.172q.688 1.062 2.031 1.062.625 0 1.219-.265.594-.281 1.219-.86z"/><text x="41" y="232.36" fill="#D9B8FF" font-family="Helvetica" font-size="17" textLength="320">azure_compute_virtual_machine_base</text><rect width="229" height="39.789" x="157.5" y="106.79" fill="#3D176E" rx="2.5" ry="2.5" style="stroke:#000d19;stroke-width:.5"/><circle cx="172.5" cy="126.684" r="11" fill="#ADD1B2" style="stroke:#181818;stroke-width:1"/><path d="M175.469 132.325q-.578.297-1.219.438-.64.156-1.344.156-2.5 0-3.828-1.64-1.312-1.657-1.312-4.782t1.312-4.781q1.328-1.656 3.828-1.656.703 0 1.344.156.656.156 1.219.453v2.719q-.625-.579-1.219-.844-.594-.281-1.219-.281-1.344 0-2.031 1.078-.687 1.062-.687 3.156t.687 3.172q.688 1.062 2.031 1.062.625 0 1.219-.265.594-.281 1.219-.86z"/><text x="191.5" y="132.57" fill="#D9B8FF" font-family="Helvetica" font-size="17" textLength="187">azure_network_profile</text><rect width="233" height="39.789" x="71.5" y="7" fill="#3D176E" rx="2.5" ry="2.5" style="stroke:#000d19;stroke-width:.5"/><circle cx="86.5" cy="26.895" r="11" fill="#ADD1B2" style="stroke:#181818;stroke-width:1"/><path d="M89.469 32.535q-.578.297-1.219.438-.64.156-1.344.156-2.5 0-3.828-1.64-1.312-1.657-1.312-4.782t1.312-4.781q1.328-1.656 3.828-1.656.703 0 1.344.156.656.156 1.219.453v2.719q-.625-.578-1.219-.844-.594-.281-1.219-.281-1.344 0-2.031 1.078-.687 1.062-.687 3.156T85 29.879q.688 1.062 2.031 1.062.625 0 1.219-.265.594-.281 1.219-.86z"/><text x="105.5" y="32.78" fill="#D9B8FF" font-family="Helvetica" font-size="17" textLength="191">azure_network_subnet</text><path fill="none" d="M255.4 147.01c-14.72 17.14-32.21 37.498-46.93 54.638" style="stroke:#1a83af;stroke-width:2"/><path fill="#1A83AF" d="m204.56 206.2 8.898-4.222-5.64.429-.429-5.64z" style="stroke:#1a83af;stroke-width:2"/><path fill="none" d="M172.05 47.22c-11.41 15.16-25.82 37.34-32.05 59.57-4.77 17.03-4.77 22.76 0 39.79 6.23 22.23 17.03 39.627 28.44 54.777" style="stroke:#1a83af;stroke-width:2"/><path fill="#1A83AF" d="m172.05 206.15-2.22-9.596-.788 5.602-5.602-.789z" style="stroke:#1a83af;stroke-width:2"/><path fill="none" d="M204.6 47.22c14.72 17.14 32.21 37.498 46.93 54.638" style="stroke:#1a83af;stroke-width:2"/><path fill="#1A83AF" d="m255.44 106.41-2.83-9.434-.428 5.64-5.64-.428z" style="stroke:#1a83af;stroke-width:2"/></svg>
